Adwaita++-Dark/actions/16/document-print-preview.svg

<svg height="16" width="16" xmlns="http://www.w3.org/2000/svg">
  <g fill="#e6ddff">
    <path d="m2 4c-.5 0-1 .5-1 1v4c0 .5.5 1 1 1h1v-2h4.7324c.688-.7603 1.6701-1.25 2.7676-1.25 1.873 0 3.427 1.4029 3.695 3.2051.426-.1076.805-.5215.805-.9551v-4c0-.5-.5-1-1-1z"/>
    <path d="m4 1v2h8v-2z"/>
    <path d="m4 9v5h5.1934c-1.4196-.536-2.4434-1.901-2.4434-3.5 0-.5328.1168-1.0394.3203-1.5z"/>
    <path d="m10.5 7.7498a2.75 2.75 0 0 0 -2.75 2.7502 2.75 2.75 0 0 0 2.75 2.75 2.75 2.75 0 0 0 2.75-2.75 2.75 2.75 0 0 0 -2.75-2.7502zm0 1.0002a1.75 1.75 0 0 1 1.75 1.75 1.75 1.75 0 0 1 -1.75 1.75 1.75 1.75 0 0 1 -1.75-1.75 1.75 1.75 0 0 1 1.75-1.75z"/>
    <path d="m17.6-.75h3c.554 0 1 .3345 1 .75s-.446.75-1 .75h-3c-.554 0-1-.3345-1-.75s.446-.75 1-.75z" transform="matrix(.70710678 .70710678 -.70710678 .70710678 0 0)"/>
  </g>
</svg>

<svg xmlns="http://www.w3.org/2000/svg" width="16" height="16" version="1.1">
 <path style="fill:#E6DDFF" d="M 2 4 C 1.5 4 1 4.5 1 5 L 1 9 C 1 9.5 1.5 10 2 10 L 3 10 L 3 8 L 7.7324 8 C 8.4204 7.2397 9.4025 6.75 10.5 6.75 C 12.373 6.75 13.927 8.1529 14.195 9.9551 C 14.621 9.8475 15 9.4336 15 9 L 15 5 C 15 4.5 14.5 4 14 4 L 2 4 z"/>
 <path style="fill:#E6DDFF" d="M 4,1 V 3 H 12 V 1 Z"/>
 <path style="fill:#E6DDFF" d="M 4,9 V 14 H 9.1934 C 7.7738,13.464 6.75,12.099 6.75,10.5 6.75,9.9672 6.8668,9.4606 7.0703,9 Z"/>
 <path style="fill:#E6DDFF" d="M 10.5,7.7498 A 2.75,2.75 0 0 0 7.75,10.5 2.75,2.75 0 0 0 10.5,13.25 2.75,2.75 0 0 0 13.25,10.5 2.75,2.75 0 0 0 10.5,7.7498 Z M 10.5,8.75 A 1.75,1.75 0 0 1 12.25,10.5 1.75,1.75 0 0 1 10.5,12.25 1.75,1.75 0 0 1 8.75,10.5 1.75,1.75 0 0 1 10.5,8.75 Z"/>
 <path style="fill:#E6DDFF" d="M 17.6,-0.75 H 20.6 C 21.154,-0.75 21.6,-0.4155 21.6,0 21.6,0.4155 21.154,0.75 20.6,0.75 H 17.6 C 17.046,0.75 16.6,0.4155 16.6,0 16.6,-0.4155 17.046,-0.75 17.6,-0.75 Z" transform="rotate(45)"/>
</svg>
